X: 1
T: The Island of Woods
T: Island of the Woods
C: Liz Carrol
Z: 2020 John Chambers <jc:trillian.mit.edu>
S: https://www.facebook.com/groups/Fiddletuneoftheday/ 2020-11-12
S: https://www.facebook.com/groups/Fiddletuneoftheday/photos/
S: https://thesession.org/tunes/8940
S: fredmusic1.ABC (Frederick Faller)
D: Liz Caroll &John Doyle, "In Play"
R: reel
M: 4/4
L: 1/8
K: D
dc |\
B3 A  A2 AB | A2 AB AF dc | B3 A B2 BA | B2 Bc BA d{e}f | g3 f ed fe |
f2 ed d2 cA | d2 c{B}A GA FD | E6 :: F{G}A | BA AF E3 D | EF ED D2 F{G}A |
Bd Ad GD FD | E6 F{G}A | BA AF E3 D | EF ED D2 F{G}A | GA FD EA, DC | A,6 :|
_
